assets/features/channel/europe-and-america/multibanco.svg

<svg width="80" height="80" viewBox="0 0 80 80" fill="none" xmlns="http://www.w3.org/2000/svg">
<rect x="0.5" y="0.5" width="79" height="79" rx="7.5" fill="white"/>
<rect x="0.5" y="0.5" width="79" height="79" rx="7.5" stroke="#EEEEEE"/>
<path fill-rule="evenodd" clip-rule="evenodd" d="M30.152 20H51.5211C53.0317 20 54.2403 21.2912 54.2403 22.8846V24.2582C54.2403 26.2088 51.6035 26.2088 51.6035 24.2582V23.5165C51.6035 23.0494 51.2189 22.6374 50.7245 22.6374H29.328C28.8611 22.6374 28.4491 23.022 28.4491 23.5165V24.2582C28.4491 26.2088 25.9221 26.1813 25.9221 24.3132V22.8846C25.9221 21.2912 27.1581 20 28.6413 20H30.1245H30.152ZM39.9301 52.2253H53.7733C56.932 52.2253 56.9595 48.8736 56.6573 47.1978C56.4925 46.0714 54.5973 46.0989 54.3776 47.1978V48.489C54.3776 49.0934 53.8832 49.5604 53.3064 49.5604H26.7461C26.1419 49.5604 25.6749 49.0659 25.6749 48.489V47.1978C25.4552 46.0989 23.56 46.0714 23.3952 47.1978C23.0656 48.8461 23.0931 52.2253 26.2792 52.2253H39.9576H39.9301Z" fill="#1766AC"/>
<path fill-rule="evenodd" clip-rule="evenodd" d="M48.4999 34.8078H50.6972C51.7135 34.6155 52.4826 33.7639 52.4826 32.7199C52.4826 31.5661 51.5487 30.632 50.3951 30.632H45.9455V41.621H51.5762C52.7572 41.621 53.746 40.632 53.746 39.4507C53.746 38.2694 52.7572 37.2804 51.5762 37.2804H50.6972H48.4999C47.8407 37.2804 47.2914 36.7309 47.2914 36.0716C47.2914 35.4122 47.8407 34.8628 48.4999 34.8628V34.8078ZM53.6911 35.8793C55.1743 36.5661 56.1906 38.0221 56.1906 39.6705C56.1906 42.0056 54.158 43.9012 51.686 43.9012H44.737C44.0778 43.9012 43.5559 43.4067 43.5559 42.8023V29.5606C43.5559 28.9287 44.0778 28.4067 44.7095 28.4067H50.505C52.9495 28.4067 54.9271 30.4122 54.9271 32.8298C54.9271 34.0111 54.4602 35.11 53.6911 35.9067V35.8793Z" fill="#373535"/>
<path d="M31.0308 56.2914C31.0308 56.099 31.1956 55.9067 31.4154 55.9067C31.6351 55.9067 31.7999 56.0716 31.7999 56.2914V58.2968C31.7999 58.7639 31.6076 59.176 31.3055 59.4782C31.0034 59.7804 30.5914 59.9727 30.1244 59.9727C29.6575 59.9727 29.2455 59.7804 28.9434 59.4782C28.6412 59.176 28.449 58.7639 28.449 58.2968V56.2914C28.449 56.099 28.6138 55.9067 28.8335 55.9067C29.0532 55.9067 29.218 56.0716 29.218 56.2914V58.2968C29.218 58.5441 29.3279 58.7914 29.4927 58.9562C29.6575 59.121 29.9047 59.2309 30.1519 59.2309C30.3991 59.2309 30.6463 59.121 30.8111 58.9562C30.9759 58.7914 31.0858 58.5441 31.0858 58.2968V56.2914H31.0308Z" fill="#373535"/>
<path d="M34.5468 59.2308C34.7666 59.2308 34.9314 59.3956 34.9314 59.6154C34.9314 59.8352 34.7666 60 34.5468 60H33.5031C33.1186 60 32.7615 59.8352 32.5143 59.5879C32.2671 59.3407 32.1023 58.9835 32.1023 58.5989V56.3187C32.1023 56.1264 32.2671 55.9341 32.4868 55.9341C32.7066 55.9341 32.8714 56.0989 32.8714 56.3187V58.5989C32.8714 58.7912 32.9538 58.9561 33.0636 59.066C33.1735 59.1758 33.3383 59.2583 33.5306 59.2583H34.5468V59.2308Z" fill="#373535"/>
<path d="M42.4298 42.5547C42.5122 43.3239 41.9628 44.0107 41.1938 44.0931C40.4247 44.1756 39.738 43.6261 39.6556 42.8569L38.502 32.3349L34.437 42.6371V42.6646V42.692V42.7195V42.747C34.3546 42.8844 34.2722 43.0217 34.1623 43.1041C34.0799 43.1591 33.9975 43.214 33.9151 43.269C33.7778 43.3239 33.6404 43.3514 33.5031 43.3514H33.4482C33.2834 43.3514 33.146 43.3239 32.9812 43.269C32.8988 43.214 32.8439 43.1865 32.7615 43.1316C32.7615 43.1316 32.734 43.1041 32.7066 43.0767C32.7066 43.0767 32.7066 43.0767 32.6791 43.0492C32.6791 43.0492 32.6791 43.0492 32.6516 43.0217C32.6516 43.0217 32.6242 42.9942 32.6242 42.9668C32.5692 42.8843 32.5143 42.8294 32.4868 42.747V42.7195V42.692V42.6646V42.6371L28.4218 32.3349L27.2682 42.8569C27.1858 43.6261 26.4991 44.1756 25.73 44.0931C24.961 44.0107 24.4116 43.3239 24.494 42.5547L25.8399 30.1371C25.8399 29.9997 25.8948 29.8349 25.9223 29.6975C25.9772 29.5602 26.0322 29.4228 26.0871 29.2855C26.4442 28.6261 27.0759 28.1866 27.8175 28.0767C27.8175 28.0767 27.8724 28.0767 27.8999 28.0767C28.0098 28.0767 28.1471 28.0767 28.257 28.0767C28.3943 28.0767 28.5591 28.0767 28.669 28.1316C29.3831 28.2964 30.0148 28.7909 30.2895 29.5327L33.7503 38.2964L37.2111 29.5327C37.5132 28.7909 38.1175 28.2964 38.8316 28.1316C38.969 28.1041 39.1063 28.0767 39.2436 28.0767C39.3535 28.0767 39.4908 28.0767 39.6007 28.0767C39.6007 28.0767 39.6556 28.0767 39.6831 28.0767C40.4522 28.1866 41.0839 28.6261 41.4135 29.2855C41.4959 29.4228 41.5508 29.5602 41.5783 29.6975C41.6332 29.8349 41.6607 29.9723 41.6607 30.1371L43.0066 42.5547H42.4298Z" fill="#373535"/>
<path d="M28.2843 59.5605C28.2843 59.7528 28.1744 59.9451 27.9547 59.9725C27.7624 59.9725 27.5702 59.8627 27.5427 59.6429L27.2131 56.9506L26.087 59.5879C26.0046 59.7802 25.7848 59.8627 25.5926 59.7802C25.5102 59.7528 25.4278 59.6703 25.4003 59.5879L24.2742 56.9506L23.9446 59.6429C23.9446 59.8352 23.7248 60 23.5326 59.9725C23.3403 59.9725 23.1755 59.7528 23.203 59.5605L23.5875 56.4286C23.5875 56.2363 23.7248 56.044 23.9171 55.9616C23.9171 55.9616 23.972 55.9616 23.9995 55.9341C23.9995 55.9341 23.9995 55.9341 24.027 55.9341C24.0544 55.9341 24.0819 55.9341 24.1368 55.9341C24.3291 55.9341 24.5214 55.9616 24.6587 56.0989C24.6587 56.0989 24.7136 56.1539 24.7411 56.1813C24.7411 56.1813 24.7686 56.2363 24.796 56.2638C24.796 56.2638 24.796 56.2638 24.796 56.3187L25.7574 58.5714L26.7187 56.3187C26.8011 56.1264 26.9659 56.0165 27.1582 55.9616C27.1856 55.9616 27.2406 55.9616 27.268 55.9616C27.2955 55.9616 27.323 55.9616 27.3504 55.9616C27.5427 55.9616 27.7075 56.0989 27.8174 56.2638C27.8174 56.2912 27.8448 56.3462 27.8723 56.3736C27.8723 56.3736 27.8723 56.4286 27.8723 56.4561C27.8723 56.4561 27.8723 56.4835 27.8723 56.511L28.2568 59.6429L28.2843 59.5605Z" fill="#373535"/>
<path d="M36.1945 59.6155C36.1945 59.8078 36.0297 60.0001 35.81 60.0001C35.5903 60.0001 35.4255 59.8353 35.4255 59.6155V56.676H34.3543C34.1345 56.676 33.9697 56.5111 33.9697 56.2914C33.9697 56.0716 34.1345 55.9067 34.3543 55.9067H37.2108C37.4031 55.9067 37.5953 56.0716 37.5953 56.2914C37.5953 56.5111 37.4305 56.676 37.2108 56.676H36.1396V59.6155H36.1945Z" fill="#373535"/>
<path d="M38.502 59.6155C38.502 59.8078 38.3372 60.0001 38.1174 60.0001C37.8977 60.0001 37.7329 59.8353 37.7329 59.6155V56.2914C37.7329 56.099 37.8977 55.9067 38.1174 55.9067C38.3372 55.9067 38.502 56.0716 38.502 56.2914V59.6155Z" fill="#373535"/>
<path d="M46.1654 59.5606C46.1654 59.7529 46.0555 59.9452 45.8358 59.9727C45.6435 59.9727 45.4512 59.8628 45.4238 59.643L45.2864 58.599H43.9955C43.8032 58.599 43.611 58.4342 43.611 58.2144C43.611 57.9946 43.7758 57.8298 43.9955 57.8298H45.204V57.5551C45.1766 57.5551 45.1766 57.5551 45.1766 57.5551C45.1766 57.5001 45.1766 57.4177 45.1216 57.3628C45.1216 57.2804 45.0667 57.2254 45.0392 57.1705C44.9019 56.8683 44.6272 56.676 44.2976 56.676C44.2427 56.676 44.1603 56.676 44.1054 56.676C44.0504 56.676 43.9955 56.7034 43.9406 56.7309C43.6659 56.8683 43.4736 57.1979 43.4187 57.5551L43.199 59.6155C43.199 59.8078 42.9792 59.9727 42.787 59.9452C42.5947 59.9452 42.4299 59.7254 42.4574 59.5331L42.6771 57.4727C42.7595 56.8683 43.0891 56.3188 43.611 56.0716C43.7208 56.0166 43.8307 55.9892 43.9406 55.9617C44.0504 55.9342 44.1878 55.9067 44.2976 55.9067C44.9568 55.9067 45.4512 56.2914 45.7259 56.8133C45.7808 56.9232 45.8083 57.0331 45.8632 57.143C45.8907 57.2254 45.9182 57.3353 45.9182 57.4452C45.9182 57.4452 45.9182 57.4452 45.9182 57.4727L46.1654 59.5606Z" fill="#373535"/>
<path d="M47.3186 59.6153C47.3186 59.8076 47.1538 59.9999 46.9341 59.9999C46.7144 59.9999 46.5496 59.8351 46.5496 59.6153V56.5384V56.4834C46.5496 56.4285 46.5496 56.401 46.577 56.3735C46.577 56.3735 46.577 56.3186 46.6045 56.3186C46.6594 56.2087 46.7693 56.1263 46.9066 56.0713C46.9066 56.0713 46.9341 56.0713 46.9616 56.0713C46.9616 56.0713 46.9616 56.0713 46.989 56.0713C46.989 56.0713 47.044 56.0713 47.0714 56.0713C47.2362 56.0713 47.3736 56.1537 47.456 56.2636L49.4336 58.7911V56.346C49.4336 56.1537 49.5984 55.9614 49.8181 55.9614C50.0378 55.9614 50.2026 56.1263 50.2026 56.346V59.423C50.2026 59.5878 50.1202 59.7252 50.0104 59.8351C50.0104 59.8351 49.9554 59.8625 49.928 59.89C49.928 59.89 49.9005 59.89 49.873 59.89C49.873 59.89 49.873 59.89 49.8456 59.89C49.7082 59.9449 49.5709 59.9175 49.4336 59.89C49.4336 59.89 49.4061 59.89 49.3786 59.89C49.3786 59.89 49.3237 59.8625 49.2962 59.8351C49.2962 59.8351 49.2688 59.8076 49.2413 59.7801L47.2637 57.2526V59.6977L47.3186 59.6153Z" fill="#373535"/>
<path d="M53.1417 59.2309C53.334 59.2309 53.5262 59.3957 53.5262 59.6155C53.5262 59.8353 53.3614 60.0001 53.1417 60.0001H52.043C51.631 60.0001 51.2739 59.8353 50.9993 59.5606C50.7246 59.2859 50.5598 58.9287 50.5598 58.5166V57.3903C50.5598 56.9782 50.7246 56.621 50.9993 56.3463C51.2739 56.0716 51.631 55.9067 52.043 55.9067H53.1417C53.334 55.9067 53.5262 56.0716 53.5262 56.2914C53.5262 56.5111 53.3614 56.676 53.1417 56.676H52.043C51.8508 56.676 51.6585 56.7584 51.5211 56.8957C51.3838 57.0331 51.3014 57.1979 51.3014 57.4177V58.5441C51.3014 58.7364 51.3838 58.9287 51.5211 59.0661C51.6585 59.2034 51.8233 59.2859 52.043 59.2859H53.1417V59.2309Z" fill="#373535"/>
<path d="M55.2839 55.9067C55.7508 55.9067 56.1903 56.099 56.5199 56.4012C56.8495 56.7034 57.0417 57.143 57.0417 57.5826V58.2694C57.0417 58.7364 56.8495 59.1485 56.5199 59.4782C56.2177 59.7804 55.7783 59.9727 55.3113 59.9727C54.8444 59.9727 54.4049 59.7804 54.0753 59.4782C53.7457 59.176 53.5535 58.7639 53.5535 58.2968V57.61C53.5535 57.143 53.7457 56.7309 54.0753 56.4012C54.3775 56.099 54.8169 55.9067 55.2839 55.9067ZM55.2839 56.6485C55.0092 56.6485 54.762 56.7584 54.5697 56.9232C54.4049 57.0881 54.2951 57.3353 54.2951 57.5826V58.2694C54.2951 58.5166 54.4049 58.7639 54.5697 58.9287C54.762 59.0936 55.0092 59.2034 55.2839 59.2034C55.5585 59.2034 55.8057 59.0936 55.998 58.9287C56.1628 58.7639 56.2727 58.5166 56.2727 58.2694V57.5826C56.2727 57.3353 56.1628 57.0881 55.998 56.9232C55.8057 56.7584 55.5585 56.6485 55.2839 56.6485Z" fill="#373535"/>
<path d="M38.8313 57.9122V56.2914C38.8313 56.2364 38.8313 56.1815 38.8588 56.154C38.8588 56.099 38.9137 56.0716 38.9412 56.0166C38.9961 55.9617 39.0785 55.9067 39.1884 55.9067H40.6166C40.9462 55.9067 41.2484 56.0441 41.4681 56.2639C41.6878 56.4837 41.8252 56.7859 41.8252 57.1155C41.8252 57.3353 41.7702 57.5551 41.6329 57.7474C41.7153 57.8023 41.7702 57.8573 41.8526 57.9122C42.0449 58.132 42.1822 58.4342 42.1822 58.7364C42.1822 59.0661 42.0449 59.3683 41.8252 59.5881C41.6054 59.8078 41.3033 59.9452 40.9737 59.9452H39.1609C38.9412 59.9452 38.7764 59.7804 38.7764 59.5606V57.8848L38.8313 57.9122ZM39.5729 56.6485V59.2309H41.0286C41.166 59.2309 41.2758 59.176 41.3582 59.0935C41.4406 59.0111 41.4956 58.9012 41.4956 58.7639C41.4956 58.654 41.4406 58.5441 41.3582 58.4342C41.2758 58.3243 41.166 58.2694 41.0286 58.2694H40.5342C40.342 58.2694 40.1497 58.1045 40.1497 57.8848C40.1497 57.6925 40.3145 57.5001 40.5342 57.5001H40.699C40.8089 57.5001 40.9188 57.4452 40.9737 57.3628C41.0561 57.2804 41.111 57.1705 41.111 57.0606C41.111 56.9507 41.0561 56.8408 40.9737 56.7584C40.8913 56.676 40.7814 56.621 40.6716 56.621H39.6004L39.5729 56.6485Z" fill="#373535"/>
</svg>

<svg xmlns="http://www.w3.org/2000/svg" width="80" height="80" fill="none" viewBox="0 0 80 80"><rect width="79" height="79" x=".5" y=".5" fill="#fff" rx="7.5"/><rect width="79" height="79" x=".5" y=".5" stroke="#eee" rx="7.5"/><path fill="#1766ac" fill-rule="evenodd" d="M30.152 20h21.37c1.51 0 2.718 1.291 2.718 2.885v1.373c0 1.95-2.637 1.95-2.637 0v-.741a.885.885 0 0 0-.879-.88H29.329a.885.885 0 0 0-.879.88v.741c0 1.95-2.527 1.923-2.527.055v-1.428c0-1.594 1.236-2.885 2.72-2.885zm9.778 32.225h13.843c3.159 0 3.186-3.351 2.884-5.027-.164-1.127-2.06-1.1-2.28 0v1.291c0 .604-.494 1.071-1.07 1.071h-26.56a1.073 1.073 0 0 1-1.072-1.071v-1.291c-.22-1.1-2.115-1.127-2.28 0-.33 1.648-.302 5.027 2.884 5.027h13.679z" clip-rule="evenodd"/><path fill="#373535" fill-rule="evenodd" d="M48.5 34.808h2.197c1.017-.193 1.786-1.044 1.786-2.088a2.087 2.087 0 0 0-2.088-2.088h-4.45v10.989h5.631c1.181 0 2.17-.989 2.17-2.17s-.989-2.17-2.17-2.17H48.5a1.22 1.22 0 0 1-1.209-1.21c0-.659.55-1.208 1.209-1.208zm5.191 1.071c1.483.687 2.5 2.143 2.5 3.791 0 2.336-2.033 4.231-4.505 4.231h-6.949c-.66 0-1.181-.494-1.181-1.099V29.561a1.16 1.16 0 0 1 1.154-1.154h5.795c2.444 0 4.422 2.005 4.422 4.423 0 1.181-.467 2.28-1.236 3.077z" clip-rule="evenodd"/><path fill="#373535" d="M31.03 56.291c0-.192.166-.384.385-.384.22 0 .385.165.385.384v2.006c0 .467-.192.879-.495 1.181a1.66 1.66 0 0 1-2.362 0 1.66 1.66 0 0 1-.494-1.181V56.29c0-.192.165-.384.384-.384.22 0 .385.165.385.384v2.006c0 .247.11.494.275.66a.96.96 0 0 0 .659.274.96.96 0 0 0 .66-.275.96.96 0 0 0 .274-.66V56.29zm3.517 2.939c.22 0 .384.166.384.385 0 .22-.164.385-.384.385h-1.044c-.384 0-.742-.165-.989-.412a1.4 1.4 0 0 1-.412-.99v-2.28c0-.192.165-.384.385-.384s.384.165.384.385v2.28a.66.66 0 0 0 .66.659h1.016zm7.883-16.675a1.39 1.39 0 0 1-1.236 1.538 1.39 1.39 0 0 1-1.538-1.236l-1.154-10.522-4.065 10.302v.11c-.082.137-.165.275-.275.357l-.247.165a1.1 1.1 0 0 1-.412.082h-.055c-.165 0-.302-.027-.467-.082-.082-.055-.137-.082-.22-.137l-.054-.055-.028-.028-.027-.027s-.028-.028-.028-.055c-.055-.083-.11-.138-.137-.22v-.11l-4.065-10.302-1.154 10.522a1.39 1.39 0 0 1-1.538 1.236 1.39 1.39 0 0 1-1.236-1.538l1.346-12.418c0-.137.055-.302.082-.44l.165-.412a2.34 2.34 0 0 1 1.73-1.208h.44c.137 0 .302 0 .412.055a2.25 2.25 0 0 1 1.62 1.4l3.461 8.764 3.461-8.763a2.3 2.3 0 0 1 2.033-1.456h.439c.77.11 1.4.55 1.73 1.208q.124.207.165.413c.055.137.083.274.083.44l1.346 12.417zM28.284 59.56c0 .193-.11.385-.33.412-.192 0-.384-.11-.411-.33l-.33-2.691-1.126 2.637a.37.37 0 0 1-.494.192.33.33 0 0 1-.193-.192l-1.126-2.637-.33 2.692c0 .192-.22.357-.411.33-.193 0-.358-.22-.33-.413l.384-3.131c0-.193.138-.385.33-.467 0 0 .055 0 .082-.028h.138c.192 0 .384.028.522.165l.082.082s.028.055.055.083v.055l.961 2.252.962-2.252c.082-.193.247-.303.44-.357h.191c.193 0 .357.137.467.302 0 .027.028.082.055.11v.137l.385 3.132zm7.911.056a.393.393 0 0 1-.385.384.375.375 0 0 1-.385-.385v-2.939h-1.07a.376.376 0 0 1-.385-.385c0-.22.165-.384.384-.384h2.857c.192 0 .384.165.384.384 0 .22-.164.385-.384.385H36.14v2.94zm2.307 0a.393.393 0 0 1-.385.384.375.375 0 0 1-.384-.385v-3.324c0-.192.165-.384.384-.384.22 0 .385.165.385.384zm7.663-.056c0 .193-.11.385-.33.413-.191 0-.384-.11-.411-.33l-.138-1.044h-1.29a.393.393 0 0 1-.385-.385c0-.22.165-.384.385-.384h1.208v-.275h-.027c0-.055 0-.137-.055-.192 0-.083-.055-.138-.083-.193a.81.81 0 0 0-.741-.494h-.193a.4.4 0 0 0-.164.055c-.275.137-.467.467-.522.824l-.22 2.06c0 .193-.22.358-.412.33-.192 0-.357-.22-.33-.412l.22-2.06c.083-.605.412-1.154.934-1.401.11-.055.22-.083.33-.11.11-.028.247-.055.357-.055.659 0 1.153.384 1.428.906.055.11.082.22.137.33a1 1 0 0 1 .055.302v.028zm1.154.055a.393.393 0 0 1-.385.385.375.375 0 0 1-.384-.385v-3.132c0-.054 0-.082.027-.11 0 0 0-.054.028-.054a.55.55 0 0 1 .302-.248h.164a.48.48 0 0 1 .385.193l1.978 2.527v-2.445c0-.192.164-.385.384-.385s.385.165.385.385v3.077a.6.6 0 0 1-.193.412s-.055.027-.082.055h-.082c-.138.055-.275.027-.412 0h-.055s-.055-.028-.083-.055l-.055-.055-1.977-2.527v2.445zm5.823-.385c.192 0 .384.166.384.386s-.165.384-.384.384h-1.099a1.45 1.45 0 0 1-1.044-.44 1.45 1.45 0 0 1-.44-1.043V57.39c0-.412.166-.769.44-1.044.275-.274.632-.44 1.044-.44h1.099c.192 0 .384.166.384.385 0 .22-.165.385-.384.385h-1.099a.75.75 0 0 0-.522.22.7.7 0 0 0-.22.522v1.126a.75.75 0 0 0 .22.522c.137.137.302.22.522.22h1.099zm2.142-3.323c.467 0 .906.192 1.236.494s.522.742.522 1.182v.686c0 .467-.193.88-.522 1.21a1.73 1.73 0 0 1-1.209.494c-.467 0-.906-.193-1.236-.495a1.58 1.58 0 0 1-.522-1.181v-.687c0-.467.193-.88.522-1.209a1.73 1.73 0 0 1 1.209-.494m0 .742a1.1 1.1 0 0 0-.714.274.96.96 0 0 0-.275.66v.686c0 .248.11.495.275.66.192.165.44.274.714.274a1.1 1.1 0 0 0 .714-.274.96.96 0 0 0 .275-.66v-.686a.96.96 0 0 0-.275-.66 1.1 1.1 0 0 0-.714-.275m-16.453 1.264v-1.62c0-.056 0-.11.028-.138 0-.055.055-.082.082-.137a.35.35 0 0 1 .247-.11h1.429c.33 0 .631.137.851.357s.357.522.357.851c0 .22-.055.44-.192.632.082.055.137.11.22.165.192.22.33.522.33.824 0 .33-.138.632-.358.852s-.522.357-.851.357H39.16a.375.375 0 0 1-.385-.384v-1.676zm.742-1.264v2.583h1.456a.45.45 0 0 0 .33-.138.46.46 0 0 0 .137-.33c0-.109-.055-.219-.138-.329a.39.39 0 0 0-.33-.165h-.494a.393.393 0 0 1-.384-.384c0-.192.165-.385.384-.385h.165a.34.34 0 0 0 .275-.137.44.44 0 0 0 .137-.302c0-.11-.055-.22-.137-.303a.44.44 0 0 0-.302-.137H39.6z"/></svg>
